!!!COM: Felis, Stefano
!!!CDT: ~1538-1603/09/25
!!!PTL: 
!!!PPP: 
!!!PPR: 
!!!PDT: 1591
!!!RISM: 
!!!rime: 24
!!!OTL: Gi&agrave; non son io contento
!!!AGN: Madrigal
!!!SCT: Trm0024a
!!!SCA: Trm0024a
!!!voices: 5
**kern	**text	**kern	**text	**kern	**text	**kern	**text	**kern	**text
*part5	*part5	*part4	*part4	*part3	*part3	*part2	*part2	*part1	*part1
*staff5	*staff5	*staff4	*staff4	*staff3	*staff3	*staff2	*staff2	*staff1	*staff1
*I"Basso	*	*I"Tenore	*	*I"Alto	*	*I"Quinto	*	*I"Canto	*
*I'B	*	*I'T	*	*I'A	*	*I'Q	*	*I'C	*
*clefF4	*	*clefGv2	*	*clefG2	*	*clefG2	*	*clefG2	*
*k[b-]	*	*k[b-]	*	*k[b-]	*	*k[b-]	*	*k[b-]	*
*M4/2	*	*M4/2	*	*M4/2	*	*M4/2	*	*M4/2	*
=1-	=1-	=1-	=1-	=1-	=1-	=1-	=1-	=1-	=1-
0r	.	4r	.	4r	.	0r	.	2dd	Già
.	.	4B-	Già	4d	Già	.	.	.	.
.	.	4A	non	4e	non	.	.	4cc	non
.	.	4G	so-	4g	so-	.	.	4b-	so-
.	.	4d	-n'io	4f#X	-n'io	.	.	4a	-n'io
.	.	4d	con-	4f#i	con-	.	.	4dd	con-
.	.	4.e	-ten-	[2g	-ten-	.	.	4dd	-ten-
.	.	.	.	.	.	.	.	8ccL	.
.	.	8d	.	.	.	.	.	8b-J	.
=2	=2	=2	=2	=2	=2	=2	=2	=2	=2
1r	.	8eL	.	2g]	.	1r	.	8ccL	.
.	.	8fJ	.	.	.	.	.	8b-J	.
.	.	2g	.	.	.	.	.	8b-L	.
.	.	.	.	.	.	.	.	16aL	.
.	.	.	.	.	.	.	.	16gJJ	.
.	.	.	.	2d	-to,	.	.	2a	.
.	.	4f#X	.	.	.	.	.	.	.
4r	.	2g	-ro,	4r	.	4r	.	2g	-to,
4G	Già	.	.	4b-	<Già	4gg	Già	.	.
4A	non	2r	.	4a	non	4ff	non	4r	.
4c	so-	.	.	4g	so-	4ee	so-	4g	Già
=3	=3	=3	=3	=3	=3	=3	=3	=3	=3
4Bn	-n'io	2G	<Già	4g	-n'io	4dd	-n'io	4.gg	non
4Bi	con-	.	.	4dd	con-	4dd	con-	.	.
.	.	.	.	.	.	.	.	8gg	so-
1c	-ten-	4.g	non	2cc	-ten-	4.ee	-ten-	4gg	-n'io
.	.	.	.	.	.	.	.	4gg	con-
.	.	8g	so-	.	.	8dd	.	.	.
.	.	4g	-n'io	2b-	-to>	8eeL	.	2ee	-ten-
.	.	.	.	.	.	8ffJ	.	.	.
.	.	4e	con-	.	.	2gg	.	.	.
2d	-to	2a	-ten-	2r	.	.	.	[2dd	-to
.	.	.	.	.	.	4ff#X	.	.	.
=4	=4	=4	=4	=4	=4	=4	=4	=4	=4
2r	.	2g	-to>	2r	.	2gg	-to	2dd]	.
4B-Xi	Lun-	4f	Lun-	4b-	Lun-	4dd	Lun-	2r	.
8B-L	-ge	8fL	-ge	8b-L	-ge	8ddL	-ge	.	.
8B-J	da	8fJ	da	8b-J	da	8ddJ	da	.	.
2.F	voi,	2.f	voi,	1a	voi,	2cc	voi,	4ff	Lun-
.	.	.	.	.	.	.	.	8ffL	-ge
.	.	.	.	.	.	.	.	8ffJ	da
.	.	.	.	.	.	2ff	che	4cc	voi,
4F	che	4F	che	.	.	.	.	4dd	che
=5	=5	=5	=5	=5	=5	=5	=5	=5	=5
4E-X	se-	4B-	se-	4g	che	1gg	se-	2ee-X	se-
4C	-te il	4c	-te il	2cc	se-	.	.	.	.
1G	mio	2.d	mio	.	.	.	.	2dd	-te il
.	.	.	.	8bnL	.	.	.	.	.
.	.	.	.	8aJ	.	.	.	.	.
.	.	.	.	2bni	.	4gg	-te il	2dd	mio
.	.	4d	tor-	.	.	2gg	mio	.	.
2C	tor-	[2c	-men-	2cc	-te il	.	.	2eeni	tor-
.	.	.	.	.	.	[4aa	tor-	.	.
=6	=6	=6	=6	=6	=6	=6	=6	=6	=6
1D	-men-	4c]	.	4a	mio	4aa]	.	1dd	-men-
.	.	4B-	.	4d	tor-	2gg	-men-	.	.
.	.	2A	.	2d	-men-	.	.	.	.
.	.	.	.	.	.	4ff#X	.	.	.
1G	-to,	2G	-to,	4d	-to,	4gg	-to,	2bn	-to,
.	.	.	.	2g	In	2dd	In	.	.
.	.	2r	.	.	.	.	.	2b	In
.	.	.	.	4g	co-	4ee	co-	.	.
=7	=7	=7	=7	=7	=7	=7	=7	=7	=7
0r	.	0r	.	4a	-sì	2ff	-sì	4cc	co-
.	.	.	.	2b-	dol-	.	.	2dd	-sì
.	.	.	.	.	.	2.gg	dol-	.	.
.	.	.	.	4g	-ce	.	.	4ee	dol-
.	.	.	.	1a	mo-	.	.	4cc	-ce
.	.	.	.	.	.	4ff	-ce	2dd	mo-
.	.	.	.	.	.	2ee	mo-	.	.
.	.	.	.	.	.	.	.	4cc#Xi	.
=8	=8	=8	=8	=8	=8	=8	=8	=8	=8
0r	.	4r	.	1d	-do	2dd	-do	2dd	-do
.	.	4a	M'ar-	.	.	.	.	.	.
.	.	2f	-de il	.	.	4r	.	2aa	M'ar-
.	.	.	.	.	.	4ff	M'ar-	.	.
.	.	2g	pen-	1r	.	4ee	-de il	4gg	-de il
.	.	.	.	.	.	4dd	pen-	4ff	pen-
.	.	[2a	-sier;	.	.	[2cc#X	-sier;	[2ee	-sier;
=9	=9	=9	=9	=9	=9	=9	=9	=9	=9
0r	.	4a]	.	4r	.	4cc#]	.	4ee]	.
.	.	4f	ma	4a	ma	4dd	ma	4aa	ma
.	.	4.f	s'e-	4.cc	s'e-	4.ff	s'e-	4.aa	s'e-
.	.	8f	-gli a	8cc	-gli a	8ff	-gli a	8aa	-gli a
.	.	4c	voi	4cc	voi	4ee	voi	4gg	voi
.	.	4c	me	4cc	me	4ee	me	4gg	me
.	.	2d	giun-	2a	giun-	2dd	giun-	2ff	giun-
=10	=10	=10	=10	=10	=10	=10	=10	=10	=10
0r	.	2A	-ge	2a	-ge	2cc#X	-ge	4ee	-ge
.	.	.	.	.	.	.	.	4ee	Io
.	.	2r	.	2r	.	4r	.	4ff	ve
.	.	.	.	.	.	4ee	Io	4gg	re-
.	.	1r	.	4r	.	4ff	ve	4aa	-mi-
.	.	.	.	4e	Io	4gg	ri-	4gg	-ro et
.	.	.	.	4f	ve	4aa	-mi-	4ff	o-
.	.	.	.	4g	ri-	8ggL	.	8eeL	.
.	.	.	.	.	.	8ffJ	.	8ddJ	.
=11	=11	=11	=11	=11	=11	=11	=11	=11	=11
0r	.	1r	.	4a	-mi-	4ee	.	4cc#X	.
.	.	.	.	4b-	-ro et	4dd	-ro et	2dd	.
.	.	.	.	2a	o-	2ee	o-	.	.
.	.	.	.	.	.	.	.	4cc#X	.
.	.	4r	.	2d	-do	1dd	-do	2dd	-do
.	.	4d	A-	.	.	.	.	.	.
.	.	4.f	-l'ho-	4r	.	.	.	2r	.
.	.	.	.	4d	A-	.	.	.	.
.	.	8g	-ra	.	.	.	.	.	.
=12	=12	=12	=12	=12	=12	=12	=12	=12	=12
2D	A-	2.a	più	4.f	-l'ho-	0r	.	2r	.
.	.	.	.	8g	-ra	.	.	.	.
4.F	-l'ho-	.	.	2.a	più	.	.	4r	.
.	.	4f	vi-	.	.	.	.	4a	A-
8G	.	.	.	.	.	.	.	.	.
8AL	.	4e	-cin	.	.	.	.	4.ccn	-l'ho-
8G	.	.	.	.	.	.	.	.	.
8A	.	4a	che	4cc	vi-	.	.	.	.
8B-J	.	.	.	.	.	.	.	8dd	-ra
4c	.	[2g	son	4cc	-cin	.	.	8eeL	più
.	.	.	.	.	.	.	.	8dd	.
4c	-ra	.	.	4g	che	.	.	8ee	.
.	.	.	.	.	.	.	.	8ffJ	.
=13	=13	=13	=13	=13	=13	=13	=13	=13	=13
4G	più	4g]	.	8b-L	son	0r	.	4gg	.
.	.	.	.	8a	.	.	.	.	.
4G	vi-	4d	più	8b-	.	.	.	4gg	vi-
.	.	.	.	8ccJ	.	.	.	.	.
4.B-	-cin	4.d	lun-	4.dd	.	.	.	4ff	-cin
.	.	.	.	.	.	.	.	4dd	che
8c	che	8e	.	16ccLL	.	.	.	.	.
.	.	.	.	16b-JJ	.	.	.	.	.
4d	son	4f#X	.	4a	.	.	.	4dd	son
4e-Xi	più	2g	.	4g	più	.	.	4cc	più
2d	lun-	.	.	2a	lun-	.	.	2dd	lun-
.	.	4f#	.	.	.	.	.	.	.
=14	=14	=14	=14	=14	=14	=14	=14	=14	=14
2G	-ge,	2g	-ge,	4g	-ge,	4r	.	2dd	-ge,
.	.	.	.	2g	Et	2b-	Et	.	.
2G	Et	1d	Et	.	.	.	.	4r	.
.	.	.	.	2b-	a-	4.dd	a-	4gg	Et
2B-	a-	.	.	.	.	.	.	4ff	a-
.	.	.	.	.	.	8cc	.	.	.
.	.	.	.	4.f	-mo	4b-	.	4dd	-mo et
2F	-mo et	2c	a-	.	.	8aL	-mo et	4.ff	ar-
.	.	.	.	8g	.	8b-	.	.	.
.	.	.	.	4a	et	8cc	.	.	.
.	.	.	.	.	.	8aJ	.	8ee	.
=15	=15	=15	=15	=15	=15	=15	=15	=15	=15
2G	ar-	2.B-	-mo et	4.g	ar-	8b-L	.	8ddL	.
.	.	.	.	.	.	8ccJ	.	8cc	.
.	.	.	.	.	.	4dd	.	8b-	.
.	.	.	.	8a	.	.	.	8aJ	.
2E-X	-do e	.	.	4b-	.	8ee-XL	ar-	4g	.
.	.	.	.	.	.	8dd	.	.	.
.	.	2e-X	ar-	2cc	.	8cc	.	4gg	-do et
.	.	.	.	.	.	8b-J	.	.	.
1F	go-	.	.	.	.	4a	.	1ff	go-
.	.	4d	-do e	2b-	-do et	4b-	-do e	.	.
.	.	2c	go-	.	.	2cc	go-	.	.
.	.	.	.	4a	go-	.	.	.	.
=16	=16	=16	=16	=16	=16	=16	=16	=16	=16
1BB-	-do	2B-	-do	2b-	-do	1dd	-do	1ff	-do
.	.	1f	Più	2.dd	Più	.	.	.	.
1r	.	.	.	.	.	2ff	Più	2aa	Più
.	.	.	.	2cc	del	.	.	.	.
.	.	4c	del	.	.	4ee	del	4gg	del
.	.	4d	mio	4a	mio	4ff	mio	[4ff	mio
=17	=17	=17	=17	=17	=17	=17	=17	=17	=17
0r	.	2c	fo-	2cc	fo-	2gg	fo-	4ff]	.
.	.	.	.	.	.	.	.	4ee	fo-
.	.	4F	-co	4cc	-co	4aa	-co	4ff	-co
.	.	2B-	se	2b-	se	2ff	se	2dd	se
.	.	4B-	mag-	4b-	mag-	4ff	mag-	4dd	mag-
.	.	4G	-gior	4b-	-gior	[2gg	-gior	4ee	-gior
.	.	4G	il	4b-	il	.	.	4dd	il
=18	=18	=18	=18	=18	=18	=18	=18	=18	=18
1r	.	1A	sen-	1a	sen-	4gg]	.	4cc#X	sen-
.	.	.	.	.	.	4ff	il	2dd	.
.	.	.	.	.	.	2ee	sen-	.	.
.	.	.	.	.	.	.	.	4cc#X	.
2r	.	1d	-to,	2a	-to,	2dd	-to,	2dd	-to,
[2B-	Più	.	.	[2b-	Più	[2ff	Più	2r	.
=19	=19	=19	=19	=19	=19	=19	=19	=19	=19
2B-]	.	2r	.	2b-]	.	2ff]	.	2dd	Più
4F	del	4r	.	4a	del	4ff	del	4cc	del
4G	mio	4B-	Più	4g	mio	4dd	mio	4b-	mio
1F	fo-	4c	del	4a	fo-	1ff	fo-	4a	fo-
.	.	4d	mio	2b-	-co	.	.	8gL	.
.	.	.	.	.	.	.	.	8fJ	.
.	.	2c	fo-	.	.	.	.	2cc	.
.	.	.	.	4a	se	.	.	.	.
=20	=20	=20	=20	=20	=20	=20	=20	=20	=20
2BB-	-co	1.B-	-co	2b-	mag-	2ff	-co	2dd	-co
1E-X	se	.	.	1g	-gior	2.gg	se	2.ee-X	se
.	.	.	.	.	.	4gg	mag-	4ee-	mag-
2E-	mag-	[2G	se	2b-	.	4.gg	-gior	[2ee-	-gior
.	.	.	.	.	.	8ff	.	.	.
=21	=21	=21	=21	=21	=21	=21	=21	=21	=21
2C	-gior	4G]	.	4cc	.	4ee-X	.	2ee-]	.
.	.	4G	mag-	4b-	.	4dd	.	.	.
2C	il	1c	-gior	4a	.	4cc	.	2ee-Xi	il
.	.	.	.	4g	.	4b-	.	.	.
[1D	sen-	.	.	2f#X	.	2a	.	[1dd	sen-
.	.	2B-	il	[2g	il	2g	il	.	.
=22	=22	=22	=22	=22	=22	=22	=22	=22	=22
1D]	.	1A	sen-	2g]	.	1a	sen-	1dd]	.
.	.	.	.	2f#X	sen-	.	.	.	.
[1Gl	-to.	[1Gl	-to.	[1gl	-to.	[1bnl	-to.	[1ddl	-to.
=23	=23	=23	=23	=23	=23	=23	=23	=23	=23
0G]	.	0G]	.	0g]	.	0b]	.	0dd]	.
==	==	==	==	==	==	==	==	==	==
*-	*-	*-	*-	*-	*-	*-	*-	*-	*-
!!!RDF**kern: l = terminal long
!!!RDF**kern: i = editorial accidental
!!!ENC: Emiliano Ricciardi
!!!END: 2017/11/
!!!EED: Emiliano Ricciardi
!!!EEV: 2018/03/02/
!!!YEC: Copyright 2018 Emiliano Ricciardi, All Rights Reserved
!!!ONB: Translated from MusicXML and edited on 2018/03/02/ by Craig Sapp
